X:1
T:The Fight Is On
T:The Fight Is On
T:Lelia Naylor Morris
T:Lelia Naylor Morris, 1905
T:Public Domain Courtesy of the Cyber Hymnal™
T:Public Domain Courtesy of the Cyber Hymnal™
C:Lelia Naylor Morris
Z:Public Domain
Z:Courtesy of the Cyber Hymnal™
%%score ( 1 2 ) ( 3 4 )
L:1/8
Q:1/4=105
M:4/4
K:C
V:1 treble 
V:2 treble 
V:3 bass 
V:4 bass 
V:1
 [EG]/ | [Ec]2 [^Dc]2 [Ec]7/2 [EG]/ | [EA]>[EG] [EG]>[EG] [EA]>[EG] G>G | %3
w: 1.~The|fight is on, the|trump- et sound is ring- ing out, The|
w: 2.~The|fight is on, a-|rouse, ye sol- diers brave and true! Je-|
w: 3.~The|Lord is lead- ing|on to cer- tain vic- to- ry; The|
 [Gd]2 [^Fd]2 [=Fd]7/2 [Ge]/ | [Gd]>[^Fc] [GB]>[FA] G3/2 z2 G/ | [Ge]2 [^Ge]2 [Ae]7/2 [Ae]/ | %6
w: cry “To arms!” is|heard a- far and near; The|Lord of hosts is|
w: ho- vah leads, and|vic- tory will as- sure; Go|buck- le on the|
w: bow of prom- ise|spans the east- ern sky; His|glor- ious name in|
 [Ae]>[Ad] [Af]>[Ae] [Ad]>[Ac] [FB]>[FA] | [EG]2 [^Dc]2 [Ec]7/2 [EG]/ | %8
w: march- ing on to vic- to- ry, The|tri- umph of the|
w: ar- mor God has giv- en you, And|in His strength un-|
w: ev- ery land shall hon- ored be; The|morn will break, the|
 [Ge]>[Fd] [Ec]>[FB] !fermata![Ec]3/2 ||"^Refrain" [EG]<[EA]"^Unison" [EB]/ | %10
w: Christ will soon ap- pear.||
w: to the end en- dure.|The fight is|
w: dawn of peace is nigh.||
 [Ec]2 [EB]2 [EA]2 [CE]2 | [EG]4 G>G A>B | [Ec]2 [EB]2 [EA]2 [CE]2 | [B,DF]4- F>D F>G | %14
w: ||||
w: on, O Christ- ian|sol- dier, And face to|face in stern ar-|ray, * * With ar-|
w: ||||
 [DFB]2 [DFB]2 z3/2 G/ B>c | [FGd]2 ([FGd]2 z3/2) E/ E>F | [FB]2 [FA]2 [B,DF]2 [FA]2 | %17
w: |||
w: mor gleam- ing, and col-|ors stream- ing, The right|and wrong en- gage|
w: |||
 [EG]4 z3/2"^Harmony" [FG]/ [FA]>[FB] | [Ec]2 [EB]2 [EA]2 [CE]2 | [EG]4 [EG]>[FG] [FA]>[FB] x | %20
w: |||
w: to- day! The fight|is on, but be|not wear- y; Be strong,|
w: |||
 [Ec]2 [Ge]2 [Af]2 [Ge]2 | [FA]4 z3/2 ^G/ A>B | [^Dc]2 [Dc]2 z3/2 B/ c>^d | %23
w: |||
w: and in His might|hold fast; If God|be for us, His ban-|
w: |||
 [Ge]2 [Ge]2 z3/2 G/ G>G | [FA]2 [Af]2 [Ge]2 [Fd]2 | [Ec]6 z3/2 |] %26
w: |||
w: ner o’er us, We’ll sing|the vic- tor’s song|at|
w: |||
V:2
 x/ | x8 | x6 G>G | x8 | x4 G3/2 x/ G/ x3/2 | x8 | x8 | x8 | x11/2 || x5/2 | x8 | x4 E2 E2 | x8 | %13
 x4 [B,D]2 [B,D]2 | x6 F2 | x4 ([FG]2 B,2) | x8 | x8 | x8 | x9 | x8 | x8 | x8 | x11/2 G/ G>G | x8 | %25
 x15/2 |] %26
V:3
 [C,C]/ | [C,G,]2 [C,A,]2 [C,G,]7/2 [C,C]/ | [C,C]>[C,C] [C,C]>[C,C] [C,C]>[C,C] [E,C]>[E,C] | %3
 [G,B,]2 [A,C]2 [B,D]7/2 C/ | [B,D]>[A,D] [G,D]>[D,C] ([G,B,]>F, E,>)[D,B,] | %5
 [C,C]2 [B,,B,D]2 [A,,A,C]7/2 [G,C]/ | [F,C]>[F,C] [F,C]>[F,C] [F,C]>[F,C] [F,C]>[F,C] | %7
 [G,C]2 [_A,C]2 [G,C]7/2 [G,C]/ | [G,C]>[G,B,] [G,C]>[G,D] !fermata![C,C]3/2 || z/ z2 | %10
 [C,G,]2 [G,,G,]2 [C,G,]2 [G,,G,]2 | [C,G,]2 [G,,G,]2 [C,G,]2 [G,,G,]2 | %12
 [C,G,]2 [G,,G,]2 [C,G,]2 [G,,G,]2 | ([D,G,]2 [G,,G,]2 [D,G,]2) [G,,G,]2 | %14
 [D,G,]2 [G,,G,]2 [D,G,]2 [G,,G,]2 | [B,,G,]2 ([G,,G,]2 [B,,G,]2) [G,,G,]2 | %16
 [D,G,]2 [G,,G,]2 [D,G,]2 [G,,G,]2 | ([C,G,]2 [G,,G,]2 [C,G,]>)[G,,G,] [G,,G,]>[G,,G,] | %18
 [C,G,]2 [C,G,]2 [C,G,]2 [C,G,]2 | (z3/2 [C,C]>)[G,B,][G,B,]>G, x7/2 | %20
 [C,G,]2 [C,C]2 [C,C]2 [C,C]2 | (z3/2 F,2) z2 x5/2 | [^F,A,]2 [F,A,]2 z4 | %23
 [G,C]2 [G,C]2 z3/2 [E,C]/ [E,C]>[E,C] | [F,C]2 [F,C]2 [G,C]2 [G,,B,]2 | [C,G,]6 z3/2 |] %26
V:4
 x/ | x8 | x8 | x15/2 C/ | x8 | x8 | x8 | x8 | x11/2 || x5/2 | x8 | x8 | x8 | x8 | x8 | x8 | x8 | %17
 x8 | x8 | ([C,C]4 E,<G, E,/) x2 G,/ | x8 | [F,C]4 A,<C A,/ x3/2 | x8 | x8 | x8 | x15/2 |] %26

